X:91
T:Dul dT\'i's Na R\'aiseanna
T:Going to the Races
R:polka
D:Begley & Cooney: Meitheal
Z:id:hn-polka-91
M:2/4
L:1/8
K:E
E/F/G/A/ BG|eG BG|E/F/G/A/ BG|eF F/A/G/F/|
E/F/G/A/ BG|eG BG|AF/A/ B/c/B/A/|GE E2:|
|:e>f ec|f>f fd|e>e ec|fc cd|
e>f ec|f>f fd|eB cB/A/|GE E2:|
<end>
<start>
